static/images/past-sponsors/keyrock.svg

<svg fill="none" height="60" viewBox="0 0 301 60" width="301" xmlns="http://www.w3.org/2000/svg"><g fill="#171717"><path d="m142.978 44.6931v-25.3268c0-3.1073 2.568-5.6353 5.724-5.6353h13.982v6.816h-10.172c-.813 0-1.474.6524-1.474 1.4542v22.6917h-8.06z"/><path d="m69.1755 44.7057c-1.3697 0-2.6682-.518-3.656-1.4586l-15.8918-15.284c-1.469-1.4127-1.4899-3.7569-.0462-5.1954l15.6417-15.58981c.9957-.97883 2.3157-1.51779 3.7171-1.51779l5.4179.0051-.0436 7.9318-3.5854-.0117c-.5436 0-1.0707.2199-1.4468.6031l-11.106 10.8628 11.459 11.1393c.3716.373.8918.5882 1.4251.5882l3.253-.0113v7.9319z"/><path d="m47.0035 5.65045h-8.2359v39.06325h8.2359z"/><path d="m92.4104 45.3703c-3.3728 0-6.3036-.6574-8.711-1.9537-2.4027-1.2934-4.2822-3.1676-5.5862-5.5706-1.307-2.4067-1.9696-5.3115-1.9696-8.634 0-3.378.6626-6.3065 1.9695-8.7044 1.3041-2.3928 3.2164-4.2525 5.6839-5.5271 2.4739-1.2785 5.5069-1.9269 9.0146-1.9269 5.4563 0 9.4774 1.5298 11.9524 4.5472 2.452 2.9922 3.513 7.1609 3.152 12.3888h-23.7079l.008.1894c.0636 1.4972.3729 2.8957.9193 4.1565.622 1.436 1.5493 2.5963 2.756 3.4485 1.2091.8556 2.7294 1.2894 4.519 1.2894 1.9214 0 3.5765-.4763 4.9195-1.4158 1.3058-.9131 2.1301-2.089 2.45-3.4946h8.0431c-.432 3.3943-2.005 6.1279-4.675 8.1251-2.734 2.0454-6.3471 3.0822-10.7376 3.0822zm.3439-26.2175c-2.893 0-5.0676.9067-6.4634 2.695-.5572.7136-1.0085 1.5668-1.3415 2.5362l-.0825.2406h14.8501l-.0175-.1976c-.138-1.5699-.8611-2.8571-2.1494-3.8261-1.279-.9608-2.8926-1.4481-4.7958-1.4481z"/><path d="m108.804 55.4171v-6.54h6.6c1.171 0 2.232-.6825 2.703-1.7389l2.31-5.1399-12.046-28.2673h8.257l4.825 11.5153 3.062 8.4802 3.096-8.4881 4.907-11.5074h8.2l-15.988 37.3641c-1.123 2.6256-3.709 4.322-6.587 4.322z"/><path d="m179.485 45.3703c-3.335 0-6.241-.6573-8.639-1.9534-2.393-1.2931-4.253-3.167-5.528-5.5692-1.279-2.4072-1.928-5.3126-1.928-8.6354 0-3.3784.649-6.2978 1.927-8.6771 1.276-2.3737 3.136-4.2336 5.529-5.5279 2.398-1.2961 5.304-1.9535 8.639-1.9535 5.007 0 8.974 1.4441 11.792 4.2919 2.817 2.8496 4.246 6.8422 4.246 11.8666 0 3.3215-.644 6.2271-1.914 8.6357-1.266 2.4023-3.117 4.276-5.499 5.5692-2.389 1.296-5.291 1.9531-8.625 1.9531zm0-25.9633c-2.511 0-4.501.8819-5.916 2.6214-1.406 1.7278-2.119 4.1446-2.119 7.1839 0 3.0019.713 5.4091 2.118 7.1547 1.414 1.7586 3.405 2.6504 5.917 2.6504 2.473 0 4.45-.8916 5.874-2.6498 1.415-1.7466 2.132-4.154 2.132-7.1553 0-3.0385-.717-5.4558-2.133-7.1845-1.425-1.7391-3.401-2.6208-5.873-2.6208z"/><path d="m214.189 45.3703c-3.297 0-6.179-.6571-8.567-1.9533-2.383-1.2928-4.229-3.1663-5.485-5.5684-1.261-2.4069-1.9-5.3126-1.9-8.6363 0-3.3959.677-6.3382 2.012-8.7454 1.332-2.4027 3.221-4.2582 5.614-5.515 2.399-1.2595 5.268-1.8981 8.527-1.8981 2.806 0 5.331.4978 7.504 1.4796 2.167.9794 3.916 2.374 5.201 4.1457 1.247 1.7227 1.96 3.7906 2.117 6.1463h-8.078c-.327-1.7502-1.064-3.0901-2.189-3.982-1.155-.9159-2.688-1.3801-4.555-1.3801-1.575 0-2.991.3843-4.21 1.1424-1.219.7588-2.182 1.8718-2.862 3.3079-.677 1.4283-1.021 3.211-1.021 5.2985 0 3.0981.758 5.5404 2.252 7.2589 1.499 1.7271 3.397 2.6027 5.64 2.6027 1.225 0 2.335-.2241 3.301-.6658.967-.4424 1.794-1.0864 2.459-1.9143.634-.789 1.087-1.6966 1.347-2.6973l8.079.0001c-.268 2.2983-1.068 4.3221-2.377 6.0146-1.351 1.7462-3.14 3.1234-5.317 4.0935-2.185.9728-4.705 1.4658-7.492 1.4658z"/><path d="m240.68 4.49329h-8.003v40.19981h8.003z"/><path d="m258.081 44.7079c-1.138 0-2.217-.4288-3.039-1.2073l-11.859-11.513c-1.446-1.4033-1.475-3.7143-.065-5.1532l11.599-11.8373c.829-.8153 1.93-1.2648 3.099-1.2648l4.987.004v7.5478l-3.698.0009c-.286 0-.557.1086-.763.3055l-7.447 7.5081 7.835 7.7912c.206.1936.474.2996.756.2996l3.317-.0099v7.5235z"/></g></svg>

<svg width="301" height="60" viewBox="0 0 301 60" fill="none" xmlns="http://www.w3.org/2000/svg">
<path d="M142.978 44.6931V19.3663C142.978 16.259 145.546 13.731 148.702 13.731H162.684V20.547H152.512C151.699 20.547 151.038 21.1994 151.038 22.0012V44.6929H142.978V44.6931Z" fill="#171717"/>
<path d="M69.1755 44.7057C67.8058 44.7057 66.5073 44.1877 65.5195 43.2471L49.6277 27.9631C48.1587 26.5504 48.1378 24.2062 49.5815 22.7677L65.2232 7.17789C66.2189 6.19906 67.5389 5.6601 68.9403 5.6601L74.3582 5.6652L74.3146 13.597L70.7292 13.5853C70.1856 13.5853 69.6585 13.8052 69.2824 14.1884L58.1764 25.0512L69.6354 36.1905C70.007 36.5635 70.5272 36.7787 71.0605 36.7787L74.3135 36.7674V44.6993L69.1755 44.7057Z" fill="#171717"/>
<path d="M47.0035 5.65045H38.7676V44.7137H47.0035V5.65045Z" fill="#171717"/>
<path d="M92.4104 45.3703C89.0376 45.3703 86.1068 44.7129 83.6994 43.4166C81.2967 42.1232 79.4172 40.249 78.1132 37.846C76.8062 35.4393 76.1436 32.5345 76.1436 29.212C76.1436 25.834 76.8062 22.9055 78.1131 20.5076C79.4172 18.1148 81.3295 16.2551 83.797 14.9805C86.2709 13.702 89.3039 13.0536 92.8116 13.0536C98.2679 13.0536 102.289 14.5834 104.764 17.6008C107.216 20.593 108.277 24.7617 107.916 29.9896H84.2081L84.2161 30.179C84.2797 31.6762 84.589 33.0747 85.1354 34.3355C85.7574 35.7715 86.6847 36.9318 87.8914 37.784C89.1005 38.6396 90.6208 39.0734 92.4104 39.0734C94.3318 39.0734 95.9869 38.5971 97.3299 37.6576C98.6357 36.7445 99.46 35.5686 99.7799 34.163H107.823C107.391 37.5573 105.818 40.2909 103.148 42.2881C100.414 44.3335 96.8009 45.3703 92.4104 45.3703ZM92.7543 19.1528C89.8613 19.1528 87.6867 20.0595 86.2909 21.8478C85.7337 22.5614 85.2824 23.4146 84.9494 24.384L84.8669 24.6246H99.717L99.6995 24.427C99.5615 22.8571 98.8384 21.5699 97.5501 20.6009C96.2711 19.6401 94.6575 19.1528 92.7543 19.1528Z" fill="#171717"/>
<path d="M108.804 55.4171V48.8771H115.404C116.575 48.8771 117.636 48.1946 118.107 47.1382L120.417 41.9983L108.371 13.731H116.628L121.453 25.2463L124.515 33.7265L127.611 25.2384L132.518 13.731H140.718L124.73 51.0951C123.607 53.7207 121.021 55.4171 118.143 55.4171H108.804Z" fill="#171717"/>
<path d="M179.485 45.3703C176.15 45.3703 173.244 44.713 170.846 43.4169C168.453 42.1238 166.593 40.2499 165.318 37.8477C164.039 35.4405 163.39 32.5351 163.39 29.2123C163.39 25.8339 164.039 22.9145 165.317 20.5352C166.593 18.1615 168.453 16.3016 170.846 15.0073C173.244 13.7112 176.15 13.0538 179.485 13.0538C184.492 13.0538 188.459 14.4979 191.277 17.3457C194.094 20.1953 195.523 24.1879 195.523 29.2123C195.523 32.5338 194.879 35.4394 193.609 37.848C192.343 40.2503 190.492 42.124 188.11 43.4172C185.721 44.7132 182.819 45.3703 179.485 45.3703ZM179.485 19.407C176.974 19.407 174.984 20.2889 173.569 22.0284C172.163 23.7562 171.45 26.173 171.45 29.2123C171.45 32.2142 172.163 34.6214 173.568 36.367C174.982 38.1256 176.973 39.0174 179.485 39.0174C181.958 39.0174 183.935 38.1258 185.359 36.3676C186.774 34.621 187.491 32.2136 187.491 29.2123C187.491 26.1738 186.774 23.7565 185.358 22.0278C183.933 20.2887 181.957 19.407 179.485 19.407Z" fill="#171717"/>
<path d="M214.189 45.3703C210.892 45.3703 208.01 44.7132 205.622 43.417C203.239 42.1242 201.393 40.2507 200.137 37.8486C198.876 35.4417 198.237 32.536 198.237 29.2123C198.237 25.8164 198.914 22.8741 200.249 20.4669C201.581 18.0642 203.47 16.2087 205.863 14.9519C208.262 13.6924 211.131 13.0538 214.39 13.0538C217.196 13.0538 219.721 13.5516 221.894 14.5334C224.061 15.5128 225.81 16.9074 227.095 18.6791C228.342 20.4018 229.055 22.4697 229.212 24.8254H221.134C220.807 23.0752 220.07 21.7353 218.945 20.8434C217.79 19.9275 216.257 19.4633 214.39 19.4633C212.815 19.4633 211.399 19.8476 210.18 20.6057C208.961 21.3645 207.998 22.4775 207.318 23.9136C206.641 25.3419 206.297 27.1246 206.297 29.2121C206.297 32.3102 207.055 34.7525 208.549 36.471C210.048 38.1981 211.946 39.0737 214.189 39.0737C215.414 39.0737 216.524 38.8496 217.49 38.4079C218.457 37.9655 219.284 37.3215 219.949 36.4936C220.583 35.7046 221.036 34.797 221.296 33.7963L229.375 33.7964C229.107 36.0947 228.307 38.1185 226.998 39.811C225.647 41.5572 223.858 42.9344 221.681 43.9045C219.496 44.8773 216.976 45.3703 214.189 45.3703Z" fill="#171717"/>
<path d="M240.68 4.49329H232.677V44.6931H240.68V4.49329Z" fill="#171717"/>
<path d="M258.081 44.7079C256.943 44.7079 255.864 44.2791 255.042 43.5006L243.183 31.9876C241.737 30.5843 241.708 28.2733 243.118 26.8344L254.717 14.9971C255.546 14.1818 256.647 13.7323 257.816 13.7323L262.803 13.7363V21.2841L259.105 21.285C258.819 21.285 258.548 21.3936 258.342 21.5905L250.895 29.0986L258.73 36.8898C258.936 37.0834 259.204 37.1894 259.486 37.1894L262.803 37.1795V44.703L258.081 44.7079Z" fill="#171717"/>
</svg>
